!!!COM: Music21
!!!OTL: hornpipe_Mighty-Mouse--The
!!!OMV: hornpipe_Mighty-Mouse--The
**kern
*clefG2
*k[f#c#]
*D:
*M4/4
=1
12ff#L
12dd
12bJ
4a
12ff#L
12dd
12bJ
4a
=
12aL
12dd
12ff#J
8bbL
8ff#J
2aa
=
12ggL
12ff#
12eeJ
4b
12ggL
12ff#
12eeJ
4b
=
8cc#L
8ddJ
8eeL
8cc#J
2a
=
12ff#L
12dd
12bJ
4a
12ff#L
12dd
12bJ
4a
=
12aL
12dd
12ff#J
8bbL
8ff#J
2aa
!!linebreak:original
=
4gg
12ff#L
12gg
12ff#J
12eeL
12ff#
12eeJ
12ddL
12ee
12ddJ
=
8cc#L
8aJ
8bL
8cc#J
2dd
=||
*M4/4
12ff#L
12dd
12bJ
4a
12ff#L
12dd
12bJ
4a
=
12aL
12dd
12ff#J
8bbL
8ff#J
2aa
=
12ggL
12ff#
12eeJ
4b
12ggL
12ff#
12eeJ
4b
!!linebreak:original
=
8cc#L
8ddJ
8eeL
8cc#J
2a
=
12ff#L
12dd
12bJ
4a
12ff#L
12dd
12bJ
4a
=
12aL
12dd
12ff#J
8bbL
8ff#J
2aa
=
4gg
12ff#L
12gg
12ff#J
12eeL
12ff#
12eeJ
12ddL
12ee
12ddJ
=
8cc#L
8aJ
8bL
8cc#J
2dd
=||
8ddL
8ff#J
8eeL
8ddJ
8bL
8aJ
8f#L
8aJ
!!linebreak:original
=
8ddL
8ff#J
8eeL
8ddJ
4b
8bL
8cc#J
=
8ddL
8ff#J
8eeL
8ddJ
8bL
8aJ
8f#L
8aJ
=
4b
4cc#
2dd
=||
8ddL
8ff#J
8eeL
8ddJ
8bL
8aJ
8f#L
8aJ
=
8ddL
8ff#J
8eeL
8ddJ
4b
8bL
8cc#J
=
8ddL
8ff#J
8eeL
8ddJ
8bL
8aJ
8f#L
8aJ
!!linebreak:original
=
4b
4cc#
2dd
=||
*-
